X:1300
T:Bedford Races. JC.086
M:6/8
L:1/8
Q:120
S:John Clare,Poet,Helpston. (1793-1864)
R:Jig
O:England
A:Northamptonshire
N:
Z:P Headford
K:G
d|[G2D2B2g2]d BAG|ABc BAG|g2d BAG|BcAG2:|!
|:E|DEF GAB|ABc Bcd|def gdc|BcAG2:|]
W:MS includes Dance Instructions.


